X:3
T:Bright Size Life
C:Pat Metheny
L:1/4
M:C
I:linebreak $
K:D treble
F/c/B/f/ e/b/a/d/ ||"G" e4 | B A/G/ F F |"Bb" E4 |$ z2 (3G F E |"D" E F D2 |"D/C" z4 ||1
"Bb" D E =F2 :|2$"Bm" c3/2 B/"G" A3/2 G/ |"D""_Fine" F4 ||[K:G]"G" z D G B | e3/2 d/ ^c2 |$
"F" e d/c/ B d | A4 ||[K:D]"A7" z B E G | c B A G |"D" F A e"_D.C. al 2nd end." d ||

